X: 33283
T: Purseholder - Outhouse
R: polka
M: 2/4
K: Amajor
|:a2 a>e|fe ce|B>c de|fe ce|
a2 a>e|fe ce|1 dc Bc|BA A2:|2 af ec|BA A2||
|:B>c Bc|dc BA|d>c Bc|BA A2|
B>c Bc|dc Bc|1 f2 e2|d2 c2:|2 d2 e2|f2 g2||

